src/icons/svg/compass.svg

<!--character:E07E-->
<svg width="24" height="24" viewBox="0 0 24 24" xmlns="http://www.w3.org/2000/svg">
  <path d="M12 22C6.48667 22 2 17.5144 2 12C2 6.48556 6.48667 2 12 2C17.5133 2 22 6.48556 22 12C22 17.5144 17.5133 22 12 22ZM14.3499 14.9519C15.1244 14.3946 15.6219 13.527 15.7141 12.5731L16.1821 7.72912C16.3192 6.31082 14.7342 5.38955 13.5828 6.21838L9.65012 9.04801C8.87544 9.60565 8.37806 10.4733 8.28584 11.4272L7.81783 16.2712C7.68079 17.689 9.26573 18.6103 10.4171 17.7819L14.3499 14.9519ZM10.48 12C10.48 11.161 11.161 10.48 12 10.48C12.839 10.48 13.52 11.161 13.52 12C13.52 12.839 12.839 13.52 12 13.52C11.161 13.52 10.48 12.839 10.48 12Z" />
</svg>

<!--character:E07E-->
<svg width="24" height="24" xmlns="http://www.w3.org/2000/svg">
  <path d="M12 13.5238c.8416 0 1.5238-.6822 1.5238-1.5238S12.8416 10.4762 12 10.4762s-1.5238.6822-1.5238 1.5238.6822 1.5238 1.5238 1.5238z"/>
  <path fill-rule="evenodd" clip-rule="evenodd" d="M12 22c5.5229 0 10-4.4771 10-10S17.5229 2 12 2 2 6.4771 2 12s4.4771 10 10 10zm2.3498-7.0482c.7746-.5572 1.2721-1.4248 1.3643-2.3788l.468-4.8439c.1371-1.4183-1.4479-2.3396-2.5993-1.5107L9.6501 9.048c-.7746.5577-1.272 1.4252-1.3643 2.3792l-.468 4.844c-.137 1.4178 1.448 2.3391 2.5993 1.5107l3.9327-2.8301z"/>
</svg>
